src/actions/symbolic/bank-symbolic.svg

<svg width="16px" height="16px" version="1.1" viewBox="0 0 16 16" xmlns="http://www.w3.org/2000/svg">
 <path d="m8 0-6.9277 4h-0.072266v0.041016 0.95898h0.33789 13.324 0.33789v-0.95898-0.041016h-0.072266l-6.9277-4zm0 1.1543 4.9297 2.8457h-9.8594l4.9297-2.8457z" fill="#363636" stop-color="#000000" style="paint-order:stroke fill markers"/>
 <rect x="3" y="6" width="1" height="6" fill="#363636" stop-color="#000000" style="paint-order:stroke fill markers"/>
 <rect x="7.5" y="6" width="1" height="6" fill="#363636" stop-color="#000000" style="paint-order:stroke fill markers"/>
 <rect x="12" y="6" width="1" height="6" fill="#363636" stop-color="#000000" style="paint-order:stroke fill markers"/>
 <path d="m2 13c-0.554 0-1 0.446-1 1v1h1v-1h12v1h1v-1c0-0.554-0.446-1-1-1h-12z" fill="#363636" stop-color="#000000" style="paint-order:stroke fill markers"/>
</svg>

<svg xmlns="http://www.w3.org/2000/svg" width="16" height="16">
    <path fill="#050505" fill-opacity=".7" d="M8 0 1.072 4H1v1H15V4h-.072L8 0zm0 1.154L12.93 4H3.07L8 1.154zM3 6h1v6H3zM7.5 6h1v6h-1zM12 6h1v6h-1zM2 13c-.554 0-1 .446-1 1v1h1v-1h12v1h1v-1c0-.554-.446-1-1-1H2z" style="paint-order:stroke fill markers"/>
</svg>
